X:4685
T:Polska
A:Orust
M:3/4
N:Accent strongly on the offbeats ...
O:Sweden
R:Polska
Z:Richard Robinson 
%%TUNEURL: http://www.leeds.ac.uk/music/Info/RRTuneBk/gettune/00000ced.html
%%ID:00000ced
K:G
B,>C A,B, G,A, | B,C DB, G,A, | B,C A,B, G,A, | B,C D2 D2 ::
B>c AB GA      | Bc dB GA     | Bc AB GA      | Bc d2 d2 :|
|::fg ef de | (3cAc d2fa | ag (3egf (3dfe | (3cAc d4 ::|
